X:1
T:Title
%%score 1 { 2 | 3 } 4 ( 5 6 )
L:1/8
Q:1/4=120
M:4/4
K:D
V:1 treble nm="Midi_1"
V:2 treble nm="Midi_1"
V:3 treble 
V:4 treble nm="Midi_1"
V:5 treble nm="Midi_1"
V:6 treble 
V:1
"^Psalm 21: 1, 2, 3, 5""^Allegro" d2 z d fad'f | g3 f/e/"^The King shall rejoice" fad'f | %2
w: ||
"^Coronation Anthem III" g3 f/e/ f"^1"abg | e2 a2 dfge | c2 f4 e2- | e2 d2 cdef | %6
w: ||||
"^George Frideric Handel""^(1685-1759)" eAae d3 c/B/ | ceac' d'3 c'/b/ | c'aec d3 c/B/ | %9
w: |||
 ce f2 B2 e2 | aA d2- dc/B/ce | Fdcd c2 B>A | A2 z a bgeg | afdf gece | fad'f g3 f/e/ | %15
w: ||||||
 fad'f g3 f/e/ | fdfa geeg | fdfa geeg | fd b2 z eac | df g2 z Afd | bBeg- g2 d'2 | %21
w: ||||||
 c'b/a/d'g f2 e>d | ddfa geeg | fdfa geeg | fd b2 z eac | df g2 z Afd | bBeg Ac'd'f || %27
w: ||||||
 eadg f2 e>d | d2 z A A2 A>d | c2 z c d2 c>B | f2 c>d d2 c2 | d4 bgeg | afdf g3 c | d2 d'f g2 ce | %34
w: |* The King shall re-|joice, the King shall re-|joice in thy strength, O|Lord, * * * *|* * * * * the|King * * * shall re-|
 d2 d'f g2 ce | d2 B2 e2 A2 | d2 g2 c2"^- 2 -" f2 | B2 e2 A2 dd | c2 ac' d'2 ed | c4 d4 | %40
w: joice, * * * shall re-|joice, * * *||* * * shall re-|joice * * * in thy|strength, O|
 c2 z c A2 Ad | c3 e d3 e |"^___" c2 z B A2 c>B | A2 d>c B2 c>d | c4 fdBd | ecAc d3 c/B/ | %46
w: Lord, the King shall re-|joice, * * *|* the King shall re-|joice in thy strength, O *|Lord, * * * *||
 c z z c dcde | A2"^- 3 -" d4 =c2 | B2 =cA B2 cA | B2 =cA B^cde | A2 ge fa B>c | d2 ge fa B>c | %52
w: * the King * shall re-|joice, * *|* shall re- joice, shall re-|joice, shall re- joice * * *|* * * * * in thy|strength, * * * * O *|
 d2 z A g2 f>g | e2 d>d c2 d2 | e2 a>d c>dd3/2c/4d/4 | e2 A>d c2 d2 | e2 a>d c>dd3/2c/4d/4 | %57
w: Lord, the King shall re-|joice in thy strength, O|Lord, * * * * * * *|* in thy strength, O|Lord, * * * * * * *|
 eA z c dcde | A2"^- 4 -" dc/B/ A2 dc/B/ | A2 z A d2 c>B | A2 d>d d2 c2 | d4 bgeg | afdd c2 ec | %63
w: * * the King * shall re-|joice, * * * * * * *|* the King shall re-|joice in thy strength, O|Lord, * * * *|* * * the King shall re-|
 A3 d c e2 c | A3 d c e2 c | A2 z A d2 c>B | A2 d>d d2 c2 | d4 geeg | fdfa geeg | fd b2 z eac | %70
w: joice, * * * *||* the King shall re-|joice in thy strength, O|Lord! * * * *|||
 df g2 z Afd | bBeg- g2 d'2 | c'b/a/d'g f2 e>d | d2 z2 z4 |][K:A][M:3/4] x6 | %75
w: |||||
[M:3/4]"^*Allegro" z3/2 e<ac'<bd/ | c>ea>c'b>d | c>eB>eA>"^2"a | g>"^- 5 -"fe>dc>B | c2 z4 | %80
w: |||||
 z3/2 e<ac'<ce/ | d2 z4 | z3/2 g<bd<cB/ | c2 z4 | e2 z4 | a2 z2 z3/2 c/ | d3 z/ e/ c2- | cd B3 A | %88
w: ||||||||
 A>c (3cde (3cde | c2 z4 | e2 z4 | a2 z2 z3/2 c/ | d3 z/ B/ (3cBA | B>c G7/2 A/ || %94
w: ||||||
 A>a (3cde (3cde | c2 e3 d | c2 eddc | c4 b>d | c>ea>c'b>d | c2 e2 d>c | c4 z2 | e4 z2 | c2 d2 e2 | %103
w: |Ex- ceed- ing|glad shall * he *|be, * *||ex- ceed- ing *|glad,|glad,|ex- ceed- ing|
 A2 B2 c2 | B4 z2 | z6 | z6 | z6 | z6 | z6 | B2 G2 E2 | A6- | A2 G2 F2 | B6 | B6 | z6 | E2 G2 B2 | %117
w: glad shall he|be||||||of thy sal-|va|||tion,||of thy sal-|
"^______" e6- | e3 ^dcB | c3 BAB | Ge"^[   ]""^- 6 -" T^d4 | e4 (3gab | g2 z2 z2 | z e (3GAB(3GAB | %124
w: va||||tion. * * *|||
 G2 z2 z2 | z6 | z6 | G2 BAAG | G2 BAAG | G4 z2 | c2 e2 c2 | A4 z2 | d2 B2 A2 | G4 z2 | e2 c2 A2 | %135
w: |||Ex- ceed * ing *|glad shall * he *|be,|ex- ceed- ing|glad,|shall * he|be|of thy sal-|
 e6- |"^________" e6 | d6- | d6 | c6- | c2 B2 A2 | G2 A2 B2 | c2 d2 c2 | B6 | z6 |"^- 7 -" z6 | %146
w: va||||||||tion,|||
 z6 | A2 c2 e2 | f3 ede | cd"^[   ]" TB4 | A4 c2 | B4 B2 | A2 d4- | d2 c4- | c2 B4 | e6 | d2 c4 | %157
w: |of thy sal-|va * * *||tion, of|thy sal-|va *|||||
 B4 z2 | c2 d2 B2 | c4 z2 | c2 d2 B2 | c4 z2 | z6 | z6 | c2 A2 c2 | d4 z2 | B2 d2 B2 | c2 d2 c2 | %168
w: tion.|Ex- ceed- ing|glad|shall * he|be,|||ex- ceed- ing|glad,|ex- ceed- ing|glad shall he|
 B4 z2 | c6 | c6 | c6 | f3 e de | cd"^[   ]" TB4 |"^- 8 -" c4 f2 | B4 c2- | cd"^[   ]" TB4 | %177
w: be|of|thy|sal-|va * * *||tion, of|thy sal|* * va-|
 A4 b>d | c>ea>c'b>d | c>eB>eA>a | g>fe>dc>B | c2 z2 z2 | a2 z2 z2 | d3 ecB | (3Bcd B3 A | %185
w: tion. * *||||||||
 A>a (3cde (3cde | c>a (3cde (3cde | d3 B (3cBA | B>c G3 A | A6 || %190
w: |||||
[M:4/4]"^A tempo giusto. Non tanto allegro" d8- | d8 |"^3" d4 f/=g/"^- 9 -"b/g/a/f/g/e/ | %193
w: Glo||ry * * * * * * * *|
 f/A/B/=G/A/F/G/E/ F2 d2 | f4 f4 | z2"^Adagio" ff =g2 f2 | f2"^[   ]" Te2 f4 ||[M:3/4] x6 | %198
w: * * * * * * * * * and|wor- ship|hast thou laid up-|on * him.||
[M:3/4]"^Allegro" z6 | z6 | z6 | z6 | z6 | z6 | z6 | z6 | z6 | z6 | z6 | z6 | z6 | z6 | %212
w: ||||||||||||||
"^- 10 -" z6 | z6 | z6 | z6 | z6 | z6 | z6 | z6 | z6 | z6 | z6 | z6 | B6 | d4 d2 | c3 BA^G | %227
w: ||||||||||||Thou|hast pre-|ven * * *|
 AB"^[   ]" T^G3 F | F4 z2 | z6 | z2 c2 f2 | efedec | dedcd"^- 11 -"B | c6- | cdcBA^G | F2 f^ef^g | %236
w: * * * ted|him||with the|bless * * * * *|||||
 ^e2 c2 f2- | f^g"^[   ]" T^e4 | f4 z2 | z6 | z6 | c6 | d6 | c4 c2 | d6 | c4 c2 | d6 | c2 d3 c | %248
w: * ings of|* * good-|ness,|||and|hast|set a|crown|of pure|gold|up- on his|
 c6 | z6 | z6 | z6 | z6 | d6 | d6 | d4 d2 | d6 | d4"^- 12 -" d2 | d6 | d2 Tc3"^[   ]" d | d6 | f6 | %262
w: head,|||||and|hast|set a|crown|of pure|gold|up- on his|head.|Thou|
 =g4 g2 | f3 edc | de"^[   ]" Tc3 B | B4 z2 | z6 | z6 | z6 | z6 | z6 | z2 c3 c | dedcdB | cdcBcd | %274
w: hast pre-|ven * * *|* * * ted|him,||||||with the|bless * * * * *||
 B^AB"^- 13 -"dcB | ^A2 F2 F2 | B6 | c4 c2 | d4 ef | =gf e2 e2 | c4 =ge | f2 f2 e2 | d2 c2 B2 | %283
w: * * ings * of *|good- ness, and|hast|set a|crown * *|* * of pure|gold, * *|* and hast|set * a|
 ^A4 z2 | c4 c2 | d3 ^A B2- | Bc"^[   ]" T^A3 B | B4 =gf | ed c3 B | B3 A=GF | ED C3 B, | B,6 |] %292
w: crown|of pure|gold * *|* up- on his|head. * *|||||
[M:4/4] x8 |[M:4/4]"^Allegro" d4 z4 |"^4" z8 |"^- 14 -" z8 | z8 | z4 z2 z e | AABc d4- | %299
w: |||||Al-|le- lu * * ia,|
 d2 c2"^[   ]" TB3 B | A4 A3 d | c3 c d3 d | d2 z B =gfed | cB A2"^[   ]" Te3 e | d2 z d f2 B2 | %305
w: * al- le- lu-|ia, al- le-|lu- ia,~al- le- lu-|ia, al- le * lu *|ia, * al- le- lu-|ia, al- le- lu-|
 B2 z"^- 15 -" B e2 A2 | A2 z A d3 e | c2 e2 d3 d | c2 A2 e2 z2 | z4 z EF^G | A3 B cdef | %311
w: ia, al- le- lu-|ia, al- le- lu-|ia, al- le- lu-|ia, * *|al- le- lu-|ia, * * * * *|
 B2 e2 e2 ^d2 | e2 c2 B2 z2 | z4 z EF^G | A3 B cA d2- | d2 c2"^- 16 -" B3 B | c2 z c d2 B2 | %317
w: * al- le- lu-|ia, * *|al- le- lu-|ia, * * * *|* al- le- lu-|ia, al- le *|
 c2 d4 c2 | d2 z A B2 =G2 | A2 B2"^[   ]" T=c3 c | B2 z2 d3 d | e3 e fedc | B2 z d edcB | %323
w: * * lu-|ia, al- le *|* * * lu-|ia, al- le-|lu- ia,~al- le * lu *|ia, * * * * *|
 AABc d4- | d4 c4- | c4"^_____" B4- | B4 ^A4 | B2"^- 17 -" =g4 f2 | B2 e4 d2- | ddcB ^A2 B2 | %330
w: ||||||* * * * * al-|
 B2"^[   ]" T^A2 B2 z2 | z8 | z4 z2 e2 | AABc d4- | ddcB c2 f2 | B2 z d edcB | AABc d4- | %337
w: le- lu- ia,||al-|le- lu * * ia,||* al- le * lu *|ia, * * * *|
 ddcB"^- 18 -" ccde | A2 f2 e2 z2 | z4 z ABc | d3 e fe d2 | c2 c2 d3 d | c2 A2 e2 z2 | z4 z def | %344
w: ||al- le- lu-|ia, * * * *|* al- le- lu-|ia, * *|al- le- lu-|
 =g4- gcde | f4- ff=gf | e4- eABc | d4- dfed | c"^- 19 -"edc dfed | c2 z e fedc | B3 d edcB | %351
w: ia, * * * *|||||* al- le * lu *|ia, * * * * *|
 A4 A3 d | c3 c d3 d | d3 B =gfed | cB A2"^[   ]" Te3 e | d2 z d f2 B2 | B2 z B e2 A2 | %357
w: * al- le-|lu- ia,~al- le- lu-|ia, al- le * lu *|ia, * al- le- lu-|ia, al- le- lu-|ia, al- le- lu-|
"^- 20 -" A2 z A d3 e | c2 d2 c2 d2 | c2 d2 c2 d2 | c2 z2 !fermata!z4 | z2"^Adagio" c2 d3 d | %362
w: ia, al- le- lu-|ia, al- le- lu-|ia, al- le- lu-|ia,|al- le- lu-|
 c2 d2 d2"^[   ]" Tc2 | d8 |] %364
w: ia, al- le- lu-|ia.|
V:2
[K:C] z8 | z8 | z8 | z8 | z8 | z8 | z8 |[M:4/4] z8 | z8 | z8 | z8 | z8 | z8 | z8 |[M:4/4] z8 | z8 | %16
w: ||||||||||||||||
w: ||||||||||||||||
 z8 | z8 | z8 | z8 | z8 |[M:4/4] z8 | z8 | z8 | z8 | z8 | z8 ||[K:D][M:4/4][K:treble] z8 | %28
w: ||||||||||||
w: ||||||||||||
 z2 z D F2 E>D | A2 z A F2 F>B | A2 G>F E2 F>G | F4 z4 | z4 z2 z A | A2 z2 z2 AA | A2 z2 z2 AA | %35
w: The King shall re-|joice, the King shall re-|joice in thy strength, O *|Lord,|the|King shall re-|joice, shall re-|
w: |||||||
 A2 B4 A2- | A2 G4 F2- | F2 ED/C/ D2 AA | A2 z2 z2 ^GB | A4 ^G4 | A2 z A A2 A^G | A6"^[   ]" T^G2 | %42
w: joice, * *||* * * * * shall re-|joice in thy|strength, O|Lord, the King shall re-|joice, *|
w: |||||||
"^___" A2 z E A2 ^G>F | E2 A>A"^[   ]" T^G3 A | A4 z4 | z8 | z E A4 GG | F2 z F GFGA | DFGA DFGA | %49
w: * the King shall re-|joice in thy strength, O|Lord,||the King shall re-|joice, the King * shall re-|joice, * * * * * * *|
w: |||||||
 DFGA D2 GG | F2 z2 z2 B>G | A2 z2 z2 BG | A2 z A D2 A>D | B2 A>B G2 F2 | E2 z2 z4 | z2 A>A G2 F2 | %56
w: * * * * * shall re-|joice in thy|strength, O *|Lord, the King shall re-|joice in thy strength, O|Lord,|in thy strength, O|
w: |||||||
 E2 z2 z4 | z2 z A A2 GG | F2 GA/G/ F2 GA/G/ | F2 z A F2 F>G | A2 G>F E2 F>G | F4 z4 | %62
w: Lord,|the King shall re-|joice, * * * * * * *|* the King shall re-|joice in thy strength, O *|Lord,|
w: ||||||
 z2 z A G2 FE | FDFA G3 F/E/ | FDFA G3 F/E/ | F2 z A F2 F>G | A2 G>F E2 F>G | F4 z4 |[M:4/4] z8 | %69
w: the King shall re-|joice, * * * * * *||* the King shall re-|joice in thy strength, O *|Lord!||
w: |||||||
 z8 | z8 | z8 | z8 | z8 |] z6 |[M:3/4] z6 | z6 | z6 | z6 | z6 | z6 | z6 | z6 |[M:3/4] z6 | z6 | %85
w: ||||||||||||||||
w: ||||||||||||||||
 z6 | z6 | z6 | z6 | z6 | z6 | z6 | z6 | z6 ||[K:A][M:3/4] z6 | E2 A3 G | A2 E2 G2 | A4 z2 | z6 | %99
w: ||||||||||Ex- ceed- ing|glad shall he|be,||
w: ||||||||||||||
 A2 E2 G2 | A4 z2 | A2 c2 A2 | E4 z2 | F2 G2 A2 | G4 z2 | B2 G2 E2 | B6- | B6 | A6- | A6 | G6- | %111
w: ex- ceed- ing|glad,|ex- ceed- ing|glad|shall * he|be|of thy sal-|va|||||
w: ||||||||||||
 G2 F2 E2 | ^D2 E2 F2 | G2 A2 G2 | F6 | z6 | z6 | C2 E2 G2 | B6 | E3 E F2 | GA F4 | G4 z2 | z6 | %123
w: |||tion,|||of thy sal-|va-|tion, of thy|sal * va-|tion.||
w: ||||||||||||
 z6 | z6 | G2 B2 A2 | G2 BAAG | G4 z2 | z6 | G2 B2 G2 | E4 z2 | F2 A2 F2 | B4 z2 | E2 D4 | C4 z2 | %135
w: ||Ex- ceed- ing|glad shall * he *|be,||ex- ceed- ing|glad,|ex- ceed- ing|glad|shall he|be|
w: ||||||||||||
 E2 C2 A,2 |"^_______" F6- |"^______" F6 | E6 | z6 | A2 F2 D2 | B,2 A2 G2 | A2 B2 A2 | G6 | z6 | %145
w: of thy sal-|va||tion,||of thy sal-|va * *||tion,||
w: ||||||||||
 A,2 C2 E2 | A6- | A3 A"^."GA | F4 G2 | A2 A2 G2 | A2 F4 | B2 E4 | A6 | G6 | F4 B2- | B2 A4 | %156
w: of thy sal-|va||||tion, of|thy sal-|va||||
w: |||||||||||
 G2 A4 | G4 z2 | A2 F2 G2 | A4 z2 | A2 F2 G2 | A4 z2 | z6 | E2 C2 A,2 | F6- | F6 | E6 | A2 B2 A2 | %168
w: |tion.|Ex- ceed- ing|glad|shall * he|be||of thy sal-|va||tion,|glad shall he|
w: ||||||||||||
 G4 z2 | A6 | A6 | A6 | F3 A GB | A4 G2 | A4 B2 | G4 A2- | AF"^[   ]" TG4 | A4 z2 |[M:3/4] z6 | %179
w: be|of|thy|sal-|va * * *||tion, of|thy sal|* * va-|tion.||
w: |||||||||||
 z6 | z6 | z6 | z6 | z6 |[M:3/4] z6 | z6 | z6 | z6 | z6 | z6 ||[K:D][M:4/4] [FA]8- | [FA]8 | %192
w: |||||||||||Glo||
w: |||||||||||||
 [FA]4 z4 | z4 z2 A2 | [Fc]4 [Fc]4 | z2 FF [DB]2 [Fc]2 | [GB]4 [C^A]4 ||[M:3/4] x6 |[M:3/4] F6 | %199
w: ry|and|wor- ship|hast thou laid up-|on him.||Thou|
w: |||||||
 G4 G2 | F3 EDC | DE"^[   ]" TC3 B, | B,2 F2 B2 | ABAGAF | GAGFGE | FGFEFC | DCB,CDE | F^EFA^GF | %208
w: hast pre-|ven * * *|* * * ted|him with the|bless * * * * *|||||
w: |||||||||
 ^EC^DEFE | F^G"^[   ]" T^E3 F | F2 A2 A2 | GAGFGE | FGFEFD | E2 A4 | z2 GFGE | F2 B4- | %216
w: * * * * ings *|of * good *|ness, with the|bless * * * * *||* ings|of * * *|good- ness,|
w: ||||||||
 B2 ^A^GAF | B2 B^ABc | ^A2 F2 z2 | z6 | [FB]3 [FA][EG][DF] | [CE][B,D]"^[   ]" T[^A,C]3 B, | %222
w: * with * the *|bless- ings * of *|good- ness,||thou, thou hast *|pre * ven- ted|
w: ||||||
 B,4 z2 | z6 | z6 | z2 B,2 B,2 | ^G2 ^E2 F2- | F^G"^[   ]" T^E4 | F4 z2 | z6 | z6 | z2 E2 A2 | %232
w: him|||with the|bless * ings|* of good-|ness,|||with the|
w: ||||||||||
 A2 ^G2 z2 | z2 C2 F2 | F2 ^E2 z2 | z2 B4 | ^G2 G2 z2 | z6 | z2 F2 A2 | GAGFGE | FEFAGF | %241
w: bless- ings,|with the|bless- ings|of|good- ness,||with the|bless * ings * of *|good * * * * *|
w: |||||||||
"^__" E2 E2 A2 | A6 | A4 A2 | A6 | A4 A2 | A6 | A2"^[   ]" T^G3 A | A6 | D3 ABA | %250
w: * ness, and|hast|set a|crown|of pure|gold|up- on his|head.|Thou, thou hast *|
w: |||||||||
 GF"^[   ]" TE3 D | D4 z2 | z6 | A6 | B6 | A4 A2 | B6 | A4 A2 | A6 | A2 G3 A | A6 |[M:3/4] z6 | %262
w: pre * ven- ted|him,||and|hast|set a|crown|of pure|gold|up- on his|head.||
w: ||||||||||||
 z6 | z6 | z6 | B3 AGF | ED"^[   ]" TC3 B, | B,2 z2 z2 | z2 B,2 F2 | GAGFGE | FGFEFD | E2 ^A3 A | %272
w: |||Thou, thou hast *|pre * ven- ted|him|with the|bless * * * * *||* ings of|
w: ||||||||||
 B2 F2 z2 | z6 | z6 | ^A6 | B6 | ^A4 A2 | B4 z2 | z2 G2 G2 | A4 z2 | z2 F2 ^A2 | B2 D2 E2 | F4 z2 | %284
w: good- ness,|||and|hast|set a|crown|of pure|gold,|and hast|set * a|crown|
w: ||||||||||||
 G4 G2 | F3 EDC | DE C2 F2 | F4 z2 | z6 | z6 | z6 | z6 |][M:4/4] x8 |[M:4/4] z8 | z4 z2 z A | %295
w: of pure|gold * * *|up * on his|head.|||||||Al-|
w: |||||||||||
 DDEF G4- | GAFG E2 A2 | A2"^[   ]" T^G2 A4 | z8 | z8 | z4 F3 F | G3 G A3 A | ADEF G4- | %303
w: le- lu * * ia,|* * * * * al-|le- lu- ia,|||al- le-|lu- ia,~al- le- lu-|ia, * * * *|
w: ||||||||
 G2 F2 B2 A2 | A2 z A BAGF | E2 z G AGFE | D2 z F G3 G | G2 A2 A3 A | A2 E2 B2 z2 | z A^GF E2 z2 | %310
w: * al- le- lu-|ia, al- le * lu *|ia, * * * * *|* al- le- lu-|ia, al- le- lu-|ia, * *|al- le- lu- ia,|
w: |||||||
 z FED C2 A2 | ^G2 G2 A3 A | ^G2 E2 B2 z2 | z A^GF E2 z2 | z FA^G AE A2 | ^G2 A2 A2 G2 | %316
w: al- le- lu- ia, *|* al- le- lu-|ia, * *|al- le- lu- ia,|al- le- lu- ia, * *|* al- le- lu-|
w: ||||||
 A2 z A A2 G2 | A4 G3 G | A2 z F G2 E2 | F2 G4 F2 | GFGA BAGF | E2 A2 D2 F2 | GDGF E2 z G | %323
w: ia, al- le *|* * lu-|ia, al- le *|* * lu-|ia, * * * * * * *|* al- le- lu-|ia, * * * * *|
w: |||||||
 FGFE DDEF | G8 |"^______________" F8 | E8 | D2 G2 C2 z2 | z2 B2 ^A2 BF | G4 F3 G | F3 F F2 z2 | %331
w: |||||al- le- lu *|ia, * al-|le- lu- ia,|
w: ||||||||
 z4 A3 A | B3 B cBA^G | F2 z A BA^GF | ^G3 B A3 A | F2 z F B3 E | E4 z DEF | G4- GGFE | %338
w: al- le-|lu- ia,~al- le * lu *|ia, * * * * *|* al- le- lu-|ia, al- le- lu-|ia, al- le- lu-|ia, * * * *|
w: |||||||
 F2 D2 A2 z2 | z DCB, A,2 z2 | z BAG FGAB | A2 A2 A2 ^G2 | A2 F2 A2 z2 | z DCB, A,2 z2 | %344
w: ||al- le- lu- ia, * * *|* al- le- lu-|ia, * *|al- le- lu- ia,|
w: |al- le- lu- ia,|||||
 z AGF E2 z2 | z FGA B4- |"^_____________________________" BEFG A4- | ADEF G4- | GGFE FAGF | %349
w: al- le- lu- ia,|al- le- lu- ia,||||
w: |||||
 E4"^__________" A4- | ADEF G4- | GGFE F3 F | G3 G A3 A | ADEF G4- | G2 F2 B2 A2 | A2 z A BAGF | %356
w: ||* * * * al- le-|lu- ia,~al- le- lu-|ia, * * * *|* al- le- lu-|ia, al- le * lu *|
w: |||||||
 E2 z G AGFE | D2 z F G3 G | G2 F2 A2 A2 | A2 A2 A2 A2 | A2 z2 !fermata!z4 | z2 A2 A2 G2 | %362
w: ia, * * * * *|* al- le- lu-|ia, al- le- lu-|ia, al- le- lu-|ia,|al- le- lu-|
w: ||||||
 G2 FG A3 A | A8 |] %364
w: ia, al * le- lu-|ia.|
w: ||
V:3
[K:C] x8 | x8 | x8 | x8 | x8 | x8 | x8 |[M:4/4] x8 | x8 | x8 | x8 | x8 | x8 | x8 |[M:4/4] x8 | x8 | %16
w: ||||||||||||||||
w: ||||||||||||||||
 x8 | x8 | x8 | x8 | x8 |[M:4/4] x8 | x8 | x8 | x8 | x8 | x8 ||[K:D][M:4/4][K:treble] z8 | %28
w: ||||||||||||
w: ||||||||||||
 z2 z D F2 E>D | A2 z A F2 F>B | A2 G>F E2 F>G | F4 z4 | z4 z2 z A | F2 z2 z2 EE | F2 z2 z2 AG | %35
w: The King shall re-|joice, the King shall re-|joice in thy strength, O *|Lord,|the|King shall re-|joice, shall re-|
w: |||||||
 FEFD EDEC | DCDB, CB,CA, | B,A,B,C D2 DF | E2 z2 z2 BE | A4 ^G4 | A2 z E FEFD | EDEC DCDB, | %42
w: joice, * * * * * * *||* * * * * shall re-|joice in thy|strength, O|Lord, the King * shall re-|joice, * * * * * * *|
w: |||||||
"^___" C2 z E A2 ^G>F | E2 A>A"^[   ]" T^G3 A | A4 z4 | z8 | z E A4 GG | F2 z F GFGA | DFGA DFGA | %49
w: * the King shall re-|joice in thy strength, O|Lord,||the King shall re-|joice, the King * shall re-|joice, * * * * * * *|
w: |||||||
 DFGA D2 GG | F2 z2 z2 B>G | A2 z2 z2 BG | A2 z A D2 A>D | B2 A>B G2 F2 | E2 z2 z4 | z2 A>A G2 F2 | %56
w: * * * * * shall re-|joice in thy|strength, O *|Lord, the King shall re-|joice in thy strength, O|Lord,|in thy strength, O|
w: |||||||
 E2 z2 z4 | z2 z A A2 GG | F2 GA/G/ F2 GA/G/ | F2 z A F2 F>G | A2 G>F E2 F>G | F4 z4 | %62
w: Lord,|the King shall re-|joice, * * * * * * *|* the King shall re-|joice in thy strength, O *|Lord,|
w: ||||||
 z2 z A G2 FE | FDFA G3 F/E/ | FDFA G3 F/E/ | F2 z A F2 F>G | A2 G>F E2 A2 | A4 z4 |[M:4/4] x8 | %69
w: the King shall re-|joice, * * * * * *||* the King shall re-|joice in thy strength, O|Lord!||
w: |||||||
 x8 | x8 | x8 | x8 | x8 |] x6 |[M:3/4] x6 | x6 | x6 | x6 | x6 | x6 | x6 | x6 |[M:3/4] x6 | x6 | %85
w: ||||||||||||||||
w: ||||||||||||||||
 x6 | x6 | x6 | x6 | x6 | x6 | x6 | x6 | x6 ||[K:A][M:3/4] x6 | x6 | x6 | x6 | x6 | x6 | x6 | x6 | %102
w: |||||||||||||||||
w: |||||||||||||||||
 x6 | x6 | x6 | x6 | x6 | x6 | x6 | x6 | x6 | x6 | x6 | x6 | x6 | x6 | x6 | x6 | x6 | x6 | x6 | %121
w: |||||||||||||||||||
w: |||||||||||||||||||
 x6 | x6 | x6 | x6 | x6 | x6 | x6 | x6 | x6 | x6 | x6 | x6 | x6 | x6 | x6 | x6 | x6 | x6 | x6 | %140
w: |||||||||||||||||||
w: |||||||||||||||||||
 x6 | x6 | x6 | x6 | x6 | x6 | x6 | x6 | x6 | x6 | x6 | x6 | x6 | x6 | x6 | x6 | x6 | x6 | x6 | %159
w: |||||||||||||||||||
w: |||||||||||||||||||
 x6 | x6 | x6 | x6 | x6 | x6 | x6 | x6 | x6 | x6 | x6 | x6 | x6 | x6 | x6 | x6 | x6 | x6 | x6 | %178
w: |||||||||||||||||||
w: |||||||||||||||||||
[M:3/4] x6 | x6 | x6 | x6 | x6 | x6 |[M:3/4] x6 | x6 | x6 | x6 | x6 | x6 ||[K:D][M:4/4] x8 | x8 | %192
w: ||||||||||||||
w: ||||||||||||||
 x8 | x8 | x8 | x8 | x8 ||[M:3/4] x6 |[M:3/4] x6 | x6 | x6 | x6 | x6 | x6 | x6 | x6 | x6 | x6 | %208
w: ||||||||||||||||
w: ||||||||||||||||
 x6 | x6 | x6 | x6 | x6 | x6 | x6 | x6 | x6 | x6 | x6 | x6 | x6 | x6 | x6 | x6 | x6 | x6 | x6 | %227
w: |||||||||||||||||||
w: |||||||||||||||||||
 x6 | x6 | x6 | x6 | x6 | x6 | x6 | x6 | x6 | x6 | x6 | x6 | x6 | x6 | x6 | x6 | x6 | x6 | x6 | %246
w: |||||||||||||||||||
w: |||||||||||||||||||
 x6 | x6 | x6 | x6 | x6 | x6 | x6 | x6 | x6 | x6 | x6 | x6 | x6 | x6 | x6 |[M:3/4] z6 | z6 | z6 | %264
w: ||||||||||||||||||
w: ||||||||||||||||||
 z6 | B,3 FGF | ED"^[   ]" TC3 B, | B,2 B,2 E2 | EF"^[   ]" T^D3 D | E2 B,2 z2 | z6 | z6 | %272
w: |Thou, thou hast *|pre * ven- ted|him with the|bless * \-ings of|good- ness,|||
w: ||||||||
 z2 D2 G2 | G4 F2 | F2"^[   ]" TE4 | F2 C2 F2 | F6 | F4 F2 | F4 z2 | z2 G2 G2 | E4 z2 | z2 F2 C2 | %282
w: with the|bless- ings|of good|* ness, and|hast|set a|crown|of pure|gold,|and hast|
w: ||||||||||
 D4 E2 | F4 z2 | C4 C2 | F3 EDC | DE C3 B, | B,4 z2 | z6 | z6 | z6 | z6 |][M:4/4] x8 | %293
w: set a|crown|of pure|gold * * *|up * on his|head.||||||
w: |||||||||||
[M:4/4] z4 D3 D | E3 E FEDC | B,2 z D EDCB, | A,2 D2 D2"^[   ]" TC2 | D4 z4 | z8 | z8 | z4 F3 F | %301
w: Al- le-|lu- ia,~al- le * lu *|ia, * * * * *|* al- le- lu-|ia,|||al- le-|
w: ||||||||
 E3 E AGFE | DDEF G4- | G2 F2 E2 A2 | F2 z A BAGF | E2 z G AGFE | D2 z D G3 G | G2 G2 F3 G | %308
w: lu- ia,~al- le * lu *|ia, * * * *|* al- le- lu-|ia, al- le * lu *|ia, * * * * *|* al- le- lu-|ia, al- le- lu-|
w: |||||||
 A2 C2 E2 z2 | z A^GF E2 z2 | z FED C2 A2 | ^G2 G2 F3 F | ^G2 A2 E2 z2 | z A^GF E2 z2 | %314
w: ia, * *|al- le- lu- ia,|al- le- lu- ia, *|* al- le- lu-|ia, * *|al- le- lu- ia,|
w: ||||||
 z FED E2 A2 | ^G2 A2 A2 G2 | A2 z E F2 D2 | E2 F2 G3 G | F2 z F G2 E2 | F2 G4 F2 | G2 z2 z4 | z8 | %322
w: al- le- lu- ia, *|* al- le- lu-|ia, al- le *|* * * lu-|ia, al- le *|* * lu-|ia,||
w: ||||||||
 z8 | z4 z DEF | G2 z G ECDE | F2 z F DB,CD | E2 z E C^A,B,C | D2 B,2 C2 z2 | z2 E2 F3 F | %329
w: |al- le- lu-|ia, * * * * *||||al- le- lu-|
w: |||||||
 G4 F3 G | F2 E2 D2 z2 | z4 z2 A2 | A2 ^G2 A2 z2 | z4 z2 B,2 | B3 E E2 F2 | D2 z A E3 E | %336
w: ia, * al-|le- lu- ia,|al-|le- lu- ia,|al-|le- lu- ia, *|* al- le- lu-|
w: |||||||
 E4 z DEF | G4- GGFE | F2 D2 A2 z2 | z DCB, A,2 z2 | z BAG FGAB | E2 A2 A2 ^G2 | A2 F2 A2 z2 | %343
w: ia, al- le- lu-|ia, * * * *|||al- le- lu- ia, * * *|* al- le- lu-|ia, * *|
w: |||al- le- lu- ia,||||
 z DCB, A,2 z2 | z FED C2 z2 | z FGA B4- | BEFG"^_______" A4- | ADEF G4- | GGFE FAGF | %349
w: al- le- lu- ia,|al- le- lu- ia,|al- le- lu- ia,||||
w: ||||||
 E4"^__________" A4- | ADEF G4- | GGFE F3 F | E3 E AGFE | DDEF G4- | G2 F2 E2 A2 | F2 z A BAGF | %356
w: ||* * * * al- le-|lu- ia,~al- le * lu *|ia, * * * *|* al- le- lu-|ia, al- le * lu *|
w: |||||||
 E2 z G AGFE | D2 z F G3 G | G2 F2 E2 F2 | E2 F2 E2 F2 | E2 z2 !fermata!z4 | z2 F2 F2 D2 | %362
w: ia, * * * * *|* al- le- lu-|ia, al- le- lu-|ia, al- le- lu-|ia,|al- le- lu-|
w: ||||||
 E2 F2 E3 E | F8 |] %364
w: ia, al- le- lu-|ia.|
w: ||
V:4
[K:C] z8 | z8 | z8 | z8 | z8 | z8 | z8 |[M:4/4] z8 | z8 | z8 | z8 | z8 | z8 | z8 |[M:4/4] z8 | z8 | %16
w: ||||||||||||||||
w: ||||||||||||||||
 z8 | z8 | z8 | z8 | z8 |[M:4/4] z8 | z8 | z8 | z8 | z8 | z8 ||[K:D][M:4/4][K:treble-8] z8 | %28
w: ||||||||||||
w: ||||||||||||
 z2 z d f2 e>d | e2 z e d2 d>G | d2 e>f A3 A | A4 z4 | z4 z2 z e | f2 z2 z2 AA | f2 z2 z2 ee | %35
w: The King shall re-|joice, the King shall re-|joice in thy strength, O|Lord,|the|King shall re-|joice, shall re-|
w: |||||||
 fefd edec | dcdB cBcA | BABG A2 AA | c2 z2 z2 BB | e4 d4 | e2 z e fefd | edec dcdB | %42
w: joice, * * * * * * *||* * * * * shall re-|joice in thy|strength, O|Lord, the King * shall re-|joice, * * * * * * *|
w: |||||||
"^___" c2 z e c2 c>d | e2 f>A e3 e | e4 z4 | z8 | z2 z e d2 dA | d2 z A G2 =cA | B2 Gd d2 Gd | %49
w: * the King shall re-|joice in thy strength, O|Lord,||the King shall re-|joice, the King shall re-|joice, shall re- joice, shall re-|
w: |||||||
 d2 Gd d2 dg | d2 z2 z2 g>e | f2 z2 z2 ge | f2 z e g2 c>d | e2 f>d e2 A2 | c2 z2 z4 | %55
w: joice, shall re- joice, shall re-|joice in thy|strength, O *|Lord, the King shall re-|joice in thy strength, O|Lord,|
w: ||||||
 z2 d>d e2 A2 | c2 z2 z4 | z2 z e d2 dg | dcde fcde | f2 z e d2 d>e | f2 e>d A3 A | A4 z4 | %62
w: in thy strength, O|Lord,|the King shall re-|joice, * * * * * * *|* the King shall re-|joice in thy strength, O|Lord,|
w: |||||||
 z2 z f e2 ce | dAdf e2 ce | dAdf e2 ce | d2 z e d2 d>e | f2 e>d A3 A | A4 z4 |[M:4/4] z8 | z8 | %70
w: the King shall re-|joice, * * * * * *||* the King shall re-|joice in thy strength, O|Lord!|||
w: ||||||||
 z8 | z8 | z8 | z8 |] z6 |[M:3/4] z6 | z6 | z6 | z6 | z6 | z6 | z6 | z6 |[M:3/4] z6 | z6 | z6 | %86
w: ||||||||||||||||
w: ||||||||||||||||
 z6 | z6 | z6 | z6 | z6 | z6 | z6 | z6 ||[K:A][M:3/4][K:treble-8] z6 | e2 c3 d | e2 a2 e2 | e4 z2 | %98
w: |||||||||Ex- ceed- ing|glad shall he|be,|
w: ||||||||||||
 z6 | e2 c2 d2 | e4 z2 | A2 a2 e2 | c4 z2 | f2 d2 e2 | e4 z2 | z6 | z6 | z6 | z6 | z6 | z6 | %111
w: |ex- ceed- ing|glad,|ex- ceed- ing|glad|shall * he|be|||||||
w: |||||||||||||
 e2 c2 A2 | f2 e2 ^d2 | e2 f2 e2 | ^d6 | z6 | z6 | z6 | B2 e2 g2 | c4 ^d2 | eB- B4 | B4 z2 | z6 | %123
w: of thy sal-|va * *||tion,||||of thy sal-|va *||tion.||
w: ||||||||||||
 z6 | z6 | e2 g2 f2 | e2 gffe | e4 z2 | z6 | e2 g2 e2 | c4 z2 | f4 z2 | f2 d2 c2 | B4 z2 | z6 | %135
w: ||Ex- ceed- ing|glad shall * he *|be,||ex- ceed- ing|glad,|glad,|shall * he|be||
w: ||||||||||||
 z6 | z6 | z6 | z6 | e2 c2 A2 | d6- | d2 c2 B2 | e6 | e6 | z6 | z6 | F2 A2 c2 | %147
w: ||||of thy sal-|va|||tion,|||of thy sal-|
w: ||||||||||||
"^_____________" e6- | ef d4 | e4 d2 | c2 f4- | f2 e4- | e2 d4 | B2 c4 | d4 f2 | e6 | B2 e4 | %157
w: va|||tion, of|* thy|* sal-|va *||||
w: ||||||||||
 e4 z2 | e2 d2 e2 | e4 z2 | e2 d2 e2 | e4 z2 | e2 c2 A2 | e6- | e6 | d6- | d6 | c2 e4 | e4 z2 | %169
w: tion.|Ex- ceed- ing|glad|shall * he|be|of thy sal-|va|||||tion,|
w: ||||||||||||
 e6 | e6 | e6 | d6 | ef B2 e2 | e4 d2 | d4 c2 | A2 e4 | c4 z2 |[M:3/4] z6 | z6 | z6 | z6 | z6 | %183
w: of|thy|sal-|va||tion, of|thy sal|* va-|tion.||||||
w: ||||||||||||||
 z6 |[M:3/4] z6 | z6 | z6 | z6 | z6 | z6 ||[K:D][M:4/4][K:treble-8] A8- | A8 | A4 z4 | z4 z2 d2 | %194
w: |||||||Glo||ry|and|
w: |||||||||||
 c4 c4 | z2 cc B2 f2 | B4 f4 ||[M:3/4] x6 |[M:3/4][K:treble-8] f6 | g4 g2 | f3 edc | %201
w: wor- ship|hast thou laid up-|on him.||Thou|hast pre-|ven * * *|
w: |||||||
 de"^[   ]" Tc3 B | B4 z2 | z6 | z6 | z6 | B6 | d4 d2 | c3 BA^G | AB"^[   ]" T^G3 F | F2 c2 f2 | %211
w: * * * ted|him,||||thou|hast pre-|ven * * *|* * * ted|him with the|
w: ||||||||||
 efedec | dedcdB | cdcBcA | B2 e4 | z2 dcdB | c2 f4- | f2 e2 e2 | e2 c2 f2 | B2 e4 | d4 z2 | z6 | %222
w: bless * * * * *|||* ings|of * * *|good- ness,|* with the|bless * ings|of good-|ness,||
w: |||||||||||
 z6 | z2 c2 f2 | efedec |"^__" f2 B2 B2 | c2 c2 z2 | z6 | f3 edc | BA"^[   ]" T^G3 F | F4 z2 | z6 | %232
w: |with the|bless * * * * *|* ings of|good- ness,||thou, thou hast *|pre * ven- ted|him,||
w: ||||||||||
 z6 | z6 | z6 | z6 | z2 ^e2 c2 | d2 B3 A | A2 c2 f2 | d2 e2 c2 | dcdfed |"^__" c2 c2 e2 | f6 | %243
w: ||||thou hast|pre- ven- ted|him with the|bless- ings of|good * * * * *|* ness, and|hast|
w: |||||||||||
 e4 e2 | f6 | e4 e2 | f6 | e2 d3 e | e6 | z6 | z6 | d3 cBA | GF"^[   ]" TE3 D | D2 f4 | g6 | %255
w: set a|crown|of pure|gold|up- on his|head.|||Thou, thou hast *|pre * ven- ted|him, and|hast|
w: ||||||||||||
 f4 f2 | g6 | f4 f2 | f6 | f2 e3 f | f6 | z6 | z6 | z6 | z6 | z6 | z6 | z6 | z6 | z6 | z6 | z6 | %272
w: set a|crown|of pure|gold|up- on his|head.||||||||||||
w: |||||||||||||||||
 z6 | z6 | z6 | c6 | d6 | c4 f2 | d4 z2 | z2 B2 B2 | c4 z2 | z2 d2 e2 | f4 g2 | c4 z2 | ^A4 A2 | %285
w: |||and|hast|set a|crown|of pure|gold,|and hast|set a|crown|of pure|
w: |||||||||||||
 B3 c d2 | g2 f2 c2 | d4 z2 | z6 | z6 | z6 | z6 |][M:4/4] x8 |[M:4/4][K:treble-8] z4 d3 d | %294
w: gold * *|up- on his|head.||||||Al- le-|
w: |||||||||
 e3 e fedc | B2 z d edcB | A2 d2 d2"^[   ]" Tc2 | d4 z2 c2 | f3 e dcBA | ^G2 z e dBed | cedc d3 A | %301
w: lu- ia,~al- le * lu *|ia, * * * * *|* al- le- lu-|ia, al-|le- lu- ia, * * *|* al- le * lu *|ia, * * * al- le-|
w: |||||||
 c3 c f3 A | B2 z B B2 e2 | e2 f2 g2 e2 | f2 z f d2 B2 | g2 z e =c2 A2 | f2 z f d3 B | e2 g2 f3 f | %308
w: lu- ia,~al- le- lu-|ia, al- le- lu-|ia, al- le- lu-|ia, al- le- lu-|ia, al- le- lu-|ia, al- le- lu-|ia, al- le- lu-|
w: |||||||
 e2 c2 B2 z2 | z ccd e2 z2 | z AA^G e4 | z2 e2 A3 A | B2 c2 e2 z2 | z ccd e2 z2 | z fed e2 f2 | %315
w: ia, * *|al- le- lu- ia,|al- le- lu- ia,|al- le- lu-|ia, * *|al- le- lu- ia,|al- le- lu- ia, *|
w: |||||||
 B2 cd e3 e | e2 z A A2 B2 | A2 d2 e3 e | A2 z d d2 e2 | d4 =c3 c | d2 z2 z4 | z8 | z8 | %323
w: * al * le- lu-|ia, al- le *|* * * lu-|ia, al- le *|* * lu-|ia,|||
w: ||||||||
 z4 z2 z d | edcB c2 z c | dcB^A B2 z B | cB^A^G Acde | f2 d2 A2 z2 | z2 B2 c2 d2 | e3 d c2 d2 | %330
w: al-|le * lu * ia, *||||al- le- lu-|ia, * * al-|
w: |||||||
 d2 cB B2 z d | e3 e fedc | B2 e2 A2 c2 | dedc B2 d2 | e6 c2 | d2 z d B3 B | c3 e A2 A2 | e6 A2 | %338
w: le- lu * ia, al-|le- lu- ia, * * *|* * * al-|le * lu * ia, al-|le- lu-|ia, al- le- lu-|ia, * * al-|le- lu-|
w: ||||||||
 A2 a2 e2 z2 | z dcB A2 z2 | z dAc d3 g | e2 f2 d3 d | e2 f2 e2 z2 | z dcB A2 z2 | z fed c2 z2 | %345
w: ia, * *||al- le- lu- ia, *|* al- le- lu-|ia, * *|al- le- lu- ia,|al- le- lu- ia,|
w: |al- le- lu- ia,||||||
 z8 | z2 z"^*" e fedc | B3 A G3 d | e2 A2 a3 A | A2 z2 z4 | z8 | z4 d3 A | c3 c f3 A | %353
w: |al- le * lu *|ia, * * *|* al- le- lu-|ia,||al- le-|lu- ia,~al- le- lu-|
w: ||||||||
 B2 z B B2 e2 | e2 f2 g2 e2 | f2 z f d2 B2 | g2 z e =c2 A2 | f2 z f d3 B | e2 d2 e2 f2 | %359
w: ia, al- le- lu-|ia, al- le- lu-|ia, al- le- lu-|ia, al- le- lu-|ia, al- le- lu-|ia, al- le- lu-|
w: ||||||
 e2 d2 e2 d2 | e2 z2 !fermata!z4 | z2 c2 B3 B | c2 A2 A3 A | A8 |] %364
w: ia, al- le- lu-|ia,|al- le- lu-|ia, al- le- lu-|ia.|
w: |||||
V:5
[K:C] z8 | z8 | z8 | z8 | z8 | z8 | z8 |[M:4/4] z8 | z8 | z8 | z8 | z8 | z8 | z8 |[M:4/4] z8 | z8 | %16
w: ||||||||||||||||
 z8 | z8 | z8 | z8 | z8 |[M:4/4] z8 | z8 | z8 | z8 | z8 | z8 ||[K:D][M:4/4][K:bass] z8 | %28
w: ||||||||||||
 z2 z D, D2 C>B, | A,2 z A, B,2 A,>G, | F,2 E,>D, A,3 A, | %31
w: The King shall re-|joice, the King shall re-|joice in thy strength, O|
"^This edition  Andrew Sims 2013" D,4 z4 | z4 z2 z A, | D2 z2 z2 A,C | D2 z2 z2 A,C | %35
w: Lord,|the|King shall re-|joice, shall re-|
 DCDB, CB,CA, | B,A,B,G, A,G,A,F, | G,F,G,E, F,E,F,D, | A,2 z2 z2 E,^G, | A,4 B,4 | C2 z A, DCDB, | %41
w: joice, * * * * * * *|||* in thy|strength, O|Lord, the King * shall re-|
 CB,CA, B,A,B,E, |"^___" A,2 z ^G, F,2 E,>D, | C,2 D,>D, E,3 E, | [A,,A,]4 z4 | z8 | %46
w: joice, * * * * * * *|* the King shall re-|joice in thy strength, O|Lord,||
 z2 z A, B,A,B,C | D2 z D, E,D,E,F, | G,D,E,F, G,D,E,F, | G,D,E,F, G,A,B,C | D2 z2 z2 D,>D, | %51
w: the King * shall re-|joice, the King * shall re-|joice * * * * * * *||* in thy|
 D2 z2 z2 D,2 | D2 z C B,2 A,>B, | G,2 F,>G, E,2 D,2 | A,2 z2 z4 | z2 F,>F, E,2 D,2 | A,2 z2 z4 | %57
w: strength, O|Lord, the King shall re-|joice in thy strength, O|Lord,|in thy strength, O|Lord,|
 z2 z A, B,A,B,C | DA,B,C DA,B,C | D2 z C B,2 A,>G, | F,2 G,>G, A,3 A, | D,4 z4 | z2 z D ECA,C | %63
w: the King shall re- joice,||* the King shall re-|joice in thy strength, O|Lord,|the King shall re- joice,|
 D3 E/D/ ECA,C | D3 E/D/ ECA,C | D2 z C B,2 A,>G, | F,2 G,>G, A,3 A, | D,4 z4 |[M:4/4] z8 | z8 | %70
w: ||* the King shall re-|joice in thy strength, O|Lord!|||
 z8 | z8 | z8 | z8 |] z6 |[M:3/4] z6 | z6 | z6 | z6 | z6 | z6 | z6 | z6 |[M:3/4] z6 | z6 | z6 | %86
w: ||||||||||||||||
 z6 | z6 | z6 | z6 | z6 | z6 | z6 | z6 ||[K:A][M:3/4] z6 | A,2 C3 B, | A,2 CB,B,A, | A,4 z2 | z6 | %99
w: |||||||||Ex- ceed- ing|glad shall * he *|be,||
 A,2 C2 B,A, | A,4 z2 | C4 z2 | A,2 B,2 C2 | D2 B,2 A,2 | E4 z2 | z6 | B,2 G,2 E,2 | C6- | C6 | %109
w: ex- ceed- ing *|glad,|glad,|ex- ceed- ing|glad shall he|be||of thy sal-|va||
"^__" B,6- | %110
w: tion|
"^________""^*Throughout this movement, both""^ee""^and""^e""^.""^x""^may be performed as a triplet""^q e." B,6 | %111
w: |
 C2 A,2 F,2 | B,,6- | B,,6 | B,,6 | E,2 G,2 B,2 | E6- | E6 | E^DCB,A,G, | A,3 G, F,2 | E,2 B,4 | %121
w: of thy sal-|va||tion,|of thy sal-|va|||* tion, thy|sal- va-|
 E,4 z2 | z6 | z6 | z6 | z6 | z6 | E,2 G,2 F,2 | E,2 G,2 F,2 | E,4 z2 | A,2 C2 A,2 | D4 z2 | %132
w: tion.||||||Ex- ceed- ing|glad shall he|be,|ex- ceed- ing|glad,|
 B,,2 C,2 D,2 | E,2 F,2 G,2 | A,4 z2 | z6 | A,2 C2 F,2 | B,2 z2 z2 | G,2 B,2 E,2 | A,2 z2 z2 | %140
w: ex- ceed- ing|glad shall he|be,||ex- ceed- ing|glad|shall * he|be|
 F,2 D,2 B,,2 | E,6- | E,6 | E,6 | A,,2 C,2 E,2 | A,6- | A,3 B,A,B, | C3 A,B,C | D3 CB,>C | %149
w: of thy sal-|va||tion,|of thy sal-|va||||
 A,>B, E,4 | A,,2 A,4 | G,6 | F,6 | E,6 |"^_____" D,6 | C,6 | B,,2 A,,4 | E,4 z2 | A,2 B,2 E,2 | %159
w: |tion, of|thy|sal-|va||||tion.|Ex- ceed- ing|
 A,4 z2 | A,2 B,2 E,2 | A,4 z2 | z6 | z6 | A,2 C2 F,2 | B,4 z2 | G,2 B,2 E,2 | A,2 G,2 A,2 | %168
w: glad|shall * he|be,|||ex- ceed- ing|glad,|ex- ceed- ing|glad shall he|
 E,4 z2 | A,6 | A,6 | A,6 | D3 C B,>G, | A,>D, E,4 | A,,4 D,2 | E,4 A,2 | D,2 E,4 | A,,4 z2 | %178
w: be|of|thy|sal-|va * * *||tion, of|thy sal|* va-|tion.|
[M:3/4] z6 | z6 | z6 | z6 | z6 | z6 |[M:3/4] z6 | z6 | z6 | z6 | z6 | z6 ||[K:D][M:4/4] [D,D]8- | %191
w: ||||||||||||Glo|
 [D,D]8 | [D,D]4 z4 | z4 z2 D2 | ^A,4 A,4 | z2 ^A,A, B,2 =A,2 | G,4 F,4 ||[M:3/4] x6 |[M:3/4] z6 | %199
w: |ry|and|wor- ship|hast thou laid up-|on him.|||
 z6 | z6 | z6 | z6 | z6 | z6 | z6 |"^B.1" B,6 | D4 D2 | C3 B,A,^G, | A,B,"^[   ]" T^G,3 F, | %210
w: |||||||Thou|hast pre-|ven * * *|* * * ted|
 F,4 z2 | z6 | z6 | z6 | z6 | z6 |"^B.1&2" F,6 | G,4 G,2 | F,3 E, D,2 | E,2 C,3 B,, | B,,4 z2 | %221
w: him,||||||thou|hast pre-|ven * *|* * ted|him|
 z6 | z2 F,2 B,2 | A,B,A,G,A,F, | G,A,G,F,G,E, |"^__""^__" B,2 ^G,2 F,2 | ^E,2 C,2 z2 |"^B.1" z6 | %228
w: |with the|bless * * * * *||* ings of|good- ness,||
 x6 | x6 | x4 z2 | z6 | z6 | z6 |"^B.1&2" C6 | D4 D2 | C3 B, A,2 | B,2 ^G,3 F, | F,2 A,2 F,2 | %239
w: ||||||thou|hast pre-|ven * *|* * ted|him with the|
 B,2 C2 A,2 | D2 D,2 z2 | A,6 | A,6 | A,4 A,2 | A,6 | A,4 A,2 | A,6 | A,2 B,3 A, | A,6 | z6 | z6 | %251
w: bless- ings of|good- ness,|and|hast|set a|crown|of pure|gold|up- on his|head.|||
 D3 CB,A, | G,F,"^[   ]" TE,3 D, | D,2 D4 | D6 | D4 D2 | D6 | D4 D2 | D6 | D2 E3 D | D6 | z6 | z6 | %263
w: Thou, thou hast *|pre * ven- ted|him, and|hast|set a|crown|of pure|gold|up- on his|head.|||
 z6 | z6 | z6 | z6 | z6 | z6 | z6 | z6 | z6 | z6 | z6 | z6 | F,6 | F,6 | F,4 F,2 | B,4 z2 | %279
w: ||||||||||||and|hast|set a|crown|
 z2 E,2 E,2 | A,4 z2 | z2 D2 C2 | B,2 A,2 G,2 | F,4 z2 | E,4 E,2 | D,3 C, B,,2 | E,2 F,3 F, | %287
w: of pure|gold,|and hast|set * a|crown|of pure|gold * *|up- on his|
 B,,4 z2 | z6 | z6 | z6 | z6 |][M:4/4] x8 |[M:4/4] z8 | z8 | z8 | z4"^B.1" A,3 A, | %297
w: head.|||||||||Al- le-|
 B,3 B, CB,A,^G, | F,2 z A, B,A,^G,F, | E,2 A,4 G,2- | G,2 F,E,"^B.1&2" [D,A,]3 [D,A,] | %301
w: lu- ia,~al- le * lu *|ia, * * * * *||* * * al- le-|
 [E,G,]3 [E,G,] F,E,D,C, | B,,2 z D, E,D,C,B,, | A,,2 D2 D2 C2 | D2 D,2 D4- | DD=CB, C=C, C2- | %306
w: lu- ia,~al- le * lu *|ia, al- le * lu *|ia, al- le- lu-|ia * *||
 C=CB,A, B,B,A,G, |"^___" A,2 C,2 D,3 D, | A,,2 A,2 ^G,2 z2 | z F,E,D, C,2 z2 | %310
w: |* al- le- lu-|ia, * *|al- le- lu- ia,|
 z D,C,B,, A,,B,,C,D, | E,2 C,2 F,3 F, | E,2 A,2 ^G,2 z2 | z F,E,D, C,2 z2 | z DCB, A,2 F,2 | %315
w: al- le- lu- ia, * * *|* al- le- lu-|ia, * *|al- le- lu- ia,|al- le- lu- ia, *|
 E,2 A,2 E,3 E, | A,2 z A, D,2 G,2 | G,2 F,2 E,3 E, | D,2 z D G,2 =C2- | C2 B,2 A,3 A, | %320
w: * al- le- lu-|ia, al- le *|* * * lu-|ia, al- le *|* * * lu-|
 G,2 z2 z4 | z8 | z8 | z2 z A, B,A,G,F, | E,2 z G, A,G,F,E, | D,2 z F, G,F,E,D, | %326
w: ia,|||al- le * lu *|ia, * * * * *||
 C,2 z E, F,E,D,C, | B,,2 B,2 A,2 z2 | z2 G,2 F,2 B,2 | E,6 D,E, | F,3 F, B,,2 z"^B.1" B, | %331
w: ||al- le- lu-|ia, al *|le- lu- ia, al-|
 A,G,F,E, D,2 z2 | z8 | z4 z2"^B.1&2" B,2 | E,E,F,^G, A,A,, A,2- | A,D,E,F, G,G,,"^_____" G,2- | %336
w: le * lu * ia,||al-|le- lu * * ia, * *||
 G,G,F,E, F,F,E,D, | E,2 F,G, A,A,,B,,C, | D,2 D2 C2 z2 | z B,A,G, F,2 z2 | z G,F,E, D,E,F,G, | %341
w: |||al- le- lu- ia,|al- le- lu- ia, * * *|
 A,2 F,2 B,3 B, | A,2 D2 C2 z2 | %343
w: * al- le- lu-|ia, * *|
"^* One first bass should also sing these first five notes." z B,A,G, F,2 B,2 | E,2 z G, A,G,F,E, | %345
w: al- le- lu- ia, *||
 D,2 z F, G,F,E,D, | C,2 z2"^_______" F,2 z2 | B,A,G,F, E,D,C,B,, | A,,2 A,2 D3 D | A,2 z2 z4 | %350
w: |||* al- le- lu-|ia,|
 z8 | z4 [D,A,]3 [D,A,] | [E,G,]3 [E,G,] F,E,D,C, | B,,2 z D, E,D,C,B,, | A,,2 D2 D2 C2 | %355
w: |al- le-|lu- ia,~al- le * lu *|ia, al- le * lu *|ia, al- le- lu-|
 D2 D,2"^__________" D4- | DD=CB, C=C, C2- | C=CB,A, B,B,A,G, | A,2 D2 A,2 D,2 | A,2 D,2 A,2 D,2 | %360
w: ia, * *|||* al- le- lu-|ia, al- le- lu-|
 A,2 z2 !fermata!z4 | z2 A,2 B,3 B, | A,2 D,2 A,3 A, | D,8 |] %364
w: ia,|al- le- lu-|ia, al- le- lu-|ia.|
V:6
[K:C] x8 | x8 | x8 | x8 | x8 | x8 | x8 |[M:4/4] x8 | x8 | x8 | x8 | x8 | x8 | x8 |[M:4/4] x8 | x8 | %16
w: ||||||||||||||||
 x8 | x8 | x8 | x8 | x8 |[M:4/4] x8 | x8 | x8 | x8 | x8 | x8 ||[K:D][M:4/4][K:bass] x8 | x8 | x8 | %30
w: ||||||||||||||
 x8 | x8 | x8 | x8 | x8 | x8 | x8 | x8 | x8 | x8 | x8 | x8 | x8 | x8 | x8 | x8 | x8 | x8 | x8 | %49
w: |||||||||||||||||||
 x8 | x8 | x8 | x8 | x8 | x8 | x8 | x8 | x8 | x8 | x8 | x8 | x8 | x8 | x8 | x8 | x8 | x8 | x8 | %68
w: |||||||||||||||||||
[M:4/4] x8 | x8 | x8 | x8 | x8 | x8 |] x6 |[M:3/4] x6 | x6 | x6 | x6 | x6 | x6 | x6 | x6 | %83
w: |||||||||||||||
[M:3/4] x6 | x6 | x6 | x6 | x6 | x6 | x6 | x6 | x6 | x6 | x6 ||[K:A][M:3/4] x6 | x6 | x6 | x6 | %98
w: |||||||||||||||
 x6 | x6 | x6 | x6 | x6 | x6 | x6 | x6 | x6 | x6 | x6 | x6 | x6 | x6 | x6 | x6 | x6 | x6 | x6 | %117
w: |||||||||||||||||||
 x6 | x6 | x6 | x6 | x6 | x6 | x6 | x6 | x6 | x6 | x6 | x6 | x6 | x6 | x6 | x6 | x6 | x6 | x6 | %136
w: |||||||||||||||||||
 x6 | x6 | x6 | x6 | x6 | x6 | x6 | x6 | x6 | x6 | x6 | x6 | x6 | x6 | x6 | x6 | x6 | x6 | x6 | %155
w: |||||||||||||||||||
 x6 | x6 | x6 | x6 | x6 | x6 | x6 | x6 | x6 | x6 | x6 | x6 | x6 | x6 | x6 | x6 | x6 | x6 | x6 | %174
w: |||||||||||||||||||
 x6 | x6 | x6 | x6 |[M:3/4] x6 | x6 | x6 | x6 | x6 | x6 |[M:3/4] x6 | x6 | x6 | x6 | x6 | x6 || %190
w: ||||||||||||||||
[K:D][M:4/4] x8 | x8 | x8 | x8 | x8 | x8 | x8 ||[M:3/4] x6 |[M:3/4] x6 | x6 | x6 | x6 | x6 | x6 | %204
w: ||||||||||||||
 x6 | x6 | x6 | x6 | x6 | x6 | x6 | x6 | x6 | x6 | x6 | x6 | x6 | x6 | x6 | x6 | x6 | x6 | x6 | %223
w: |||||||||||||||||||
 x6 | x6 | B,2 ^G,2 F,2 | ^E,2 C,2 F,2 | B,,2 C,4 | F,4 z2 | z6 | z2"^B.2" A,2 F,2 | C2 C,2 C2 | %232
w: ||* ings of|good * *||ness,||with the|bless- ings of|
 B,6 | A,4 z2 | x6 | x6 | x6 | x6 | x6 | x6 | x6 | x6 | x6 | x6 | x6 | x6 | x6 | x6 | x6 | x6 | %250
w: good-|ness,|||||||||||||||||
 x6 | x6 | x6 | x6 | x6 | x6 | x6 | x6 | x6 | x6 | x6 | x6 | x6 | x6 | x6 | x6 | x6 | x6 | x6 | %269
w: |||||||||||||||||||
 x6 | x6 | x6 | x6 | x6 | x6 | x6 | x6 | x6 | x6 | x6 | x6 | x6 | x6 | x6 | x6 | x6 | x6 | x6 | %288
w: |||||||||||||||||||
 x6 | x6 | x6 | x6 |][M:4/4] x8 |[M:4/4] x8 | x8 | x8 | x8 | x8 | x8 | x8 | x8 | x8 | x8 | x8 | %304
w: ||||||||||||||||
 x8 | x8 | x8 | x8 | x8 | x8 | x8 | x8 | x8 | x8 | x8 | x8 | x8 | x8 | x8 | x8 | x8 | x8 | x8 | %323
w: |||||||||||||||||||
 x8 | x8 | x8 | x8 | x8 | x8 | x8 | x8 | x8 | x8 | x8 | x8 | x8 | x8 | x8 | x8 | x8 | x8 | x8 | %342
w: |||||||||||||||||||
 x8 | x8 | x8 | x8 | x8 | x8 | x8 | x8 | x8 | x8 | x8 | x8 | x8 | x8 | x8 | x8 | x8 | x8 | x8 | %361
w: |||||||||||||||||||
 x8 | x8 | x8 |] %364
w: |||

